X:292
T: ICH UND MEIN FLAESCHCHEN
N: B0344
O: Europa, Mitteleuropa, Deutschland
R: Trink - Lied
M: 6/8
L: 1/8
K: F
 | AAAAAA | AGAc2B
GGGGGG | GFGA2z
AAAAAA | AGAc2B
GGGGGG | GFGA2z
AABc2A | B2GAcf
AABc2A | B2GA2z
G2G3c | c=BB4
f4BB | dcc3B
AABc2A | B2GAcf
AABccA | BAGF2z

